X:51
T:Hamlet where my lover dwells, The
T:Am baile 'm beil mo leannan fein
R:Slow Air
S:Fraser
N:No.71
O:Scottish
M:C
L:1/8
Q:1/4=100
K:G
G/>A/|B2 Bd A2 G>A|B>ABd ef g z/G/|B2 Be A2 G>A|B>ABd ef g:|
|:(3d/e/f/|g>fga bdd (e/f/)|g>fga b2 ag|a>gfe/d/ d<B b2|g>fe>d
ef g:|

